Yaru++/apps/scalable/pitivi.svg

<svg enable-background="new" height="256" viewBox="0 0 256 256" width="256" xmlns="http://www.w3.org/2000/svg" xmlns:xlink="http://www.w3.org/1999/xlink">
  <linearGradient id="linearGradient4358" gradientTransform="matrix(0 -1 1 0 -10.0054 585.9946)" gradientUnits="userSpaceOnUse" x1="88" x2="488" y1="88" y2="488">
    <stop offset="0" stop-opacity=".588235"/>
    <stop offset=".88" stop-opacity="0"/>
    <stop offset="1"/>
  </linearGradient>
  <filter id="filter4380" color-interpolation-filters="sRGB" height="1.088" width="1.106" x="-.05" y="-.04">
    <feGaussianBlur stdDeviation="8.48"/>
  </filter>
  <filter id="filter4346" color-interpolation-filters="sRGB" height="1.022" width="1.026" x="-.01" y="-.01">
    <feGaussianBlur stdDeviation="2.12"/>
  </filter>
  <path d="m189.84323 74c-70.59344 0-78.18921 7.250835-77.84323 77.98706v146.01294 146.01294c-.34598 70.73623 7.24979 77.98706 77.84323 77.98706h196.31354c70.59344 0 76.00668-7.27384 77.84323-77.98706v-146.01294-146.01294c0-70.737067-7.24979-77.98706-77.84323-77.98706z" filter="url(#filter4346)" opacity=".1" transform="matrix(0 .5 -.5 0 276.82523 -15.328148)"/>
  <path d="m189.84323 74c-70.59344 0-78.18921 7.250835-77.84323 77.98706v146.01294 146.01294c-.34598 70.73623 7.24979 77.98706 77.84323 77.98706h196.31354c70.59344 0 77.84323-7.24999 77.84323-77.98706v-146.01294-146.01294c0-70.737067-7.24979-77.98706-77.84323-77.98706z" fill="url(#linearGradient4358)" filter="url(#filter4380)" opacity=".3" transform="matrix(0 .5 -.5 0 276.82523 -15.328148)"/>
  <path d="m239.82523 176.74484c0 35.29673-3.62542 39.09461-38.99353 38.92162h-73.00647-73.006464c-35.36812.17299-38.99353-3.62489-38.99353-38.92162v-98.156766c0-35.296716 3.625-38.921616 38.99353-38.921616h73.006464 73.00647c35.36853 0 38.99353 3.6249 38.99353 38.921616z" fill="#7839b7"/>
  <path d="m239.69141 71.599609c-.03522-1.569349-.02316-3.399328-.0918-4.818359-.1682-3.477124-.44634-6.514298-.89258-9.166016-.44624-2.651717-1.06042-4.917646-1.89453-6.853515-.41706-.967935-.88921-1.852595-1.42383-2.66211-.53462-.809514-1.13096-1.544195-1.79687-2.208984-.66592-.664789-1.40196-1.261163-2.21289-1.794922-.81094-.533759-1.69633-1.005452-2.66602-1.421875-1.93938-.832846-4.21042-1.442999-6.86719-1.888672s-5.69959-.726474-9.18359-.894531-7.40901-.224609-11.83008-.224609h-73.00586-73.007811c-4.421066 0-8.346078.056552-11.830078.224609s-6.526822.448858-9.183593.894531c-2.656772.445673-4.927807 1.055826-6.867188 1.888672-.969691.416423-1.855078.888116-2.666016 1.421875-.810937.533759-1.546976 1.130133-2.21289 1.794922-.665915.664789-1.262254 1.39947-1.796875 2.208984-.534621.809515-1.006771 1.694175-1.423828 2.66211-.834115 1.935869-1.448293 4.201798-1.894532 6.853515-.446238 2.651718-.724377 5.688892-.892578 9.166016-.068643 1.419036-.056581 3.249005-.091797 4.818359z" fill="#4d4d4d"/>
  <path d="m15.825983 174.74533v2c0 35.29673 3.624067 39.09487 38.992187 38.92188h73.00781 73.00586c35.36811.17299 38.99414-3.62515 38.99414-38.92188v-2c0 35.29673-3.62603 39.09487-38.99414 38.92188h-73.00586-73.00781c-35.36812.17299-38.992187-3.62515-38.992187-38.92188z" opacity=".2"/>
  <g transform="matrix(1.9999821 0 0 1.9999821 -246.55067560242 -341.10998874401)">
    <path d="m137.82431 191.59734c-.33833.1099-.77435.166-1.07911.29688-.48485.20821-.92755.44406-1.33302.71094s-.77349.56507-1.10645.89747c-.33297.3324-.63114.69974-.89845 1.1045s-.50339.8471-.71192 1.33107c-.41706.96794-.72415 2.10092-.94728 3.42679-.22312 1.32587-.36219 2.84447-.44629 4.58305-.0335.69198-.0274 1.5862-.0449 2.34963h15.93276v-5.33306c0-.0676-7.3607-7.37593-9.36532-9.36727z" fill="#d2d2d2"/>
    <circle cx="137.206" cy="203.575" fill="#241f31" r="1.25"/>
    <circle cx="137.206" cy="195.592" fill="#241f31" r="1.25"/>
    <circle cx="137.206" cy="203.269" fill="#f6f5f4" r="1.25"/>
    <circle cx="137.206" cy="195.287" fill="#f6f5f4" r="1.25"/>
    <circle cx="144.097" cy="203.548" fill="#241f31" r="1.25"/>
    <circle cx="144.097" cy="203.243" fill="#f6f5f4" r="1.25"/>
  </g>
  <g fill="#f6f5f4" transform="matrix(1.9999821 0 0 1.9999821 -.17286470356 -344.32668795429)">
    <path d="m26 244h76c1.062 0 2 .936 2 2h-80c0-1.108.983-2 2-2z"/>
    <path d="m48 232v14h-2v-14zm34 0v14h-2v-14zm-58 30h80c0 1.054-.913 2-2 2h-76c-.985 0-2-1.03-2-2z"/>
  </g>
  <path d="m-189.12666 75.348428-8.70342 15.48165h23.7832l7.63104-15.48165zm50.13568 0-8.83519 15.481697h23.77734l9.41638-15.481697zm50.133707 0-8.970852 15.48165h23.777344l7.634944-15.48165zm49.46319 0-8.435995 15.48165h23.779297l7.634944-15.48165z" fill="#fafafa" transform="matrix(1 0 0 1.0258241 246.41584 -21.69404673951)"/>
  <g fill="#d4d4d4" transform="matrix(1 0 0 1.00000000411 0 -.00000073864)">
    <path d="m148.58789 39.71875 8.9707 15.880859h22.44141l-7.63477-15.880859z"/>
    <path d="m223.03516 41.111328c-.43721-.087431-.72938-.248994-1.18946-.326172-2.65677-.445673-5.69959-.726474-9.18359-.894531-2.66606-.128603-5.8455-.149214-9.05273-.171875h-5.02344l8.43554 15.880859h22.97852z"/>
    <path d="m52.041016 39.71875c-1.21162.008561-2.287722.042953-3.419922.064453l8.667968 15.816406h22.710938l-7.630859-15.880859zm46.548828 0 8.835936 15.880859h24.35742l-9.41601-15.880859z"/>
  </g>
  <path d="m54.81817 39.667201c-35.36853 0-38.992187 3.623202-38.992187 38.919923v98.158206c0 .0882.0019.16224.002.25v-96.410156c-.000047-35.29672 3.625564-38.921879 38.994094-38.921879h73.005853 73.00586c35.28016 0 38.97394 3.621035 38.99219 38.671879v-1.74805c0-35.296721-3.62561-38.919923-38.99414-38.919923h-73.00586z" fill="#fff" opacity=".3"/>
</svg>

<svg xmlns="http://www.w3.org/2000/svg" xmlns:xlink="http://www.w3.org/1999/xlink" style="enable-background:new" width="256" height="256" version="1.0" viewBox="0 0 256 256">
 <title id="title4162">
  Adwaita Icon Template
 </title>
 <defs>
  <linearGradient id="linearGradient965" x1="48" x2="464" y1="44" y2="44" gradientUnits="userSpaceOnUse">
   <stop id="stop989" offset="0" style="stop-color:#77767b"/>
   <stop id="stop991" offset=".05" style="stop-color:#c0bfbc"/>
   <stop id="stop993" offset=".1" style="stop-color:#9a9996"/>
   <stop id="stop995" offset=".9" style="stop-color:#9a9996"/>
   <stop id="stop997" offset=".95" style="stop-color:#c0bfbc"/>
   <stop id="stop999" offset="1" style="stop-color:#77767b"/>
  </linearGradient>
  <radialGradient id="radialGradient1030" cx="64" cy="194.19" r="44" gradientTransform="matrix(-4.7273,7.9359e-7,-3.0301e-7,-1.6364,238.55,49.766)" gradientUnits="userSpaceOnUse">
   <stop id="stop1016" offset="0" style="stop-color:#fff"/>
   <stop id="stop1018" offset="1" style="stop-color:#fff;stop-opacity:.094118"/>
  </radialGradient>
  <linearGradient id="linearGradient1950" x1="70.347" x2="70.347" y1="245.4" y2="269.14" gradientUnits="userSpaceOnUse">
   <stop id="stop1944" offset="0" style="stop-color:#2d2839"/>
   <stop id="stop1946" offset="1" style="stop-color:#282433"/>
  </linearGradient>
  <linearGradient id="linearGradient4358" x1="88" x2="488" y1="88" y2="488" gradientTransform="rotate(-90,287.9946,298)" gradientUnits="userSpaceOnUse" xlink:href="#linearGradient4360"/>
  <linearGradient id="linearGradient4360">
   <stop id="stop4362" offset="0" style="stop-color:#000000;stop-opacity:0.58823532"/>
   <stop style="stop-color:#000000;stop-opacity:0" id="stop4364" offset=".88"/>
   <stop id="stop4366" offset="1" style="stop-color:#000000"/>
  </linearGradient>
  <filter style="color-interpolation-filters:sRGB" id="filter4380" width="1.106" height="1.088" x="-.05" y="-.04">
   <feGaussianBlur id="feGaussianBlur4382" stdDeviation="8.48"/>
  </filter>
  <filter style="color-interpolation-filters:sRGB" id="filter4346" width="1.026" height="1.022" x="-.01" y="-.01">
   <feGaussianBlur id="feGaussianBlur4348" stdDeviation="2.12"/>
  </filter>
  <clipPath id="d" clipPathUnits="userSpaceOnUse">
   <path style="fill:#e4e6e8" d="M 64,-40.445 H 512 V -8.222 H 96 c -15.592,0 -32,-17.02 -32,-32.223 z"/>
  </clipPath>
  <clipPath id="e" clipPathUnits="userSpaceOnUse">
   <rect style="fill:#e4e6e8" width="448" height="32.222" x="64" y="-40.45" rx="0" ry="0"/>
  </clipPath>
  <clipPath id="e-3" clipPathUnits="userSpaceOnUse">
   <rect style="fill:#e4e6e8" width="448" height="32.222" x="64" y="-40.45" rx="0" ry="0"/>
  </clipPath>
  <clipPath id="d-7" clipPathUnits="userSpaceOnUse">
   <path style="fill:#e4e6e8" d="M 64,-40.445 H 512 V -8.222 H 96 c -15.592,0 -32,-17.02 -32,-32.223 z"/>
  </clipPath>
 </defs>
 <path style="opacity:0.1;filter:url(#filter4346)" d="M 189.84323,74 C 119.24979,74 111.65402,81.250835 112,151.98706 V 298 444.01294 C 111.65402,514.74917 119.24979,522 189.84323,522 H 386.15677 C 456.75021,522 462.16345,514.72616 464,444.01294 V 298 151.98706 C 464,81.249993 456.75021,74 386.15677,74 Z" transform="matrix(0,0.5,-0.5,0,276.82523,-15.328148)"/>
 <path d="M 189.84323,74 C 119.24979,74 111.65402,81.250835 112,151.98706 V 298 444.01294 C 111.65402,514.74917 119.24979,522 189.84323,522 H 386.15677 C 456.75021,522 464,514.75001 464,444.01294 V 298 151.98706 C 464,81.249993 456.75021,74 386.15677,74 Z" transform="matrix(0,0.5,-0.5,0,276.82523,-15.328148)" style="opacity:0.3;fill:url(#linearGradient4358);filter:url(#filter4380)"/>
 <path style="fill:#7839b7" d="m 239.82523,176.74484 c 0,35.29673 -3.62542,39.09461 -38.99353,38.92162 H 127.82523 54.818766 c -35.36812,0.17299 -38.99353,-3.62489 -38.99353,-38.92162 V 78.588074 c 0,-35.296716 3.625,-38.921616 38.99353,-38.921616 h 73.006464 73.00647 c 35.36853,0 38.99353,3.6249 38.99353,38.921616 z"/>
 <path style="fill:#4d4d4d" d="M 239.69141 71.599609 C 239.65619 70.03026 239.66825 68.200281 239.59961 66.78125 C 239.43141 63.304126 239.15327 60.266952 238.70703 57.615234 C 238.26079 54.963517 237.64661 52.697588 236.8125 50.761719 C 236.39544 49.793784 235.92329 48.909124 235.38867 48.099609 C 234.85405 47.290095 234.25771 46.555414 233.5918 45.890625 C 232.92588 45.225836 232.18984 44.629462 231.37891 44.095703 C 230.56797 43.561944 229.68258 43.090251 228.71289 42.673828 C 226.77351 41.840982 224.50247 41.230829 221.8457 40.785156 C 219.18893 40.339483 216.14611 40.058682 212.66211 39.890625 C 209.17811 39.722568 205.2531 39.666016 200.83203 39.666016 L 127.82617 39.666016 L 54.818359 39.666016 C 50.397293 39.666016 46.472281 39.722568 42.988281 39.890625 C 39.504281 40.058682 36.461459 40.339483 33.804688 40.785156 C 31.147916 41.230829 28.876881 41.840982 26.9375 42.673828 C 25.967809 43.090251 25.082422 43.561944 24.271484 44.095703 C 23.460547 44.629462 22.724508 45.225836 22.058594 45.890625 C 21.392679 46.555414 20.79634 47.290095 20.261719 48.099609 C 19.727098 48.909124 19.254948 49.793784 18.837891 50.761719 C 18.003776 52.697588 17.389598 54.963517 16.943359 57.615234 C 16.497121 60.266952 16.218982 63.304126 16.050781 66.78125 C 15.982138 68.200286 15.9942 70.030255 15.958984 71.599609 L 239.69141 71.599609 z"/>
 <path style="opacity:0.2" d="m 15.825983,174.74533 v 2 c 0,35.29673 3.624067,39.09487 38.992187,38.92188 h 73.00781 73.00586 c 35.36811,0.17299 38.99414,-3.62515 38.99414,-38.92188 v -2 c 0,35.29673 -3.62603,39.09487 -38.99414,38.92188 H 127.82598 54.81817 C 19.45005,213.8402 15.825983,210.04206 15.825983,174.74533 Z"/>
 <g transform="matrix(1.9999821,0,0,1.9999821,-242.03702,-350.80197)">
  <g transform="translate(-2.2568482,4.8460341)">
   <path style="fill:#d2d2d2" d="m 137.82431,191.59734 c -0.33833,0.1099 -0.77435,0.166 -1.07911,0.29688 -0.48485,0.20821 -0.92755,0.44406 -1.33302,0.71094 -0.40547,0.26688 -0.77349,0.56507 -1.10645,0.89747 -0.33297,0.3324 -0.63114,0.69974 -0.89845,1.1045 -0.26731,0.40476 -0.50339,0.8471 -0.71192,1.33107 -0.41706,0.96794 -0.72415,2.10092 -0.94728,3.42679 -0.22312,1.32587 -0.36219,2.84447 -0.44629,4.58305 -0.0335,0.69198 -0.0274,1.5862 -0.0449,2.34963 h 15.93276 v -5.33306 c 0,-0.0676 -7.3607,-7.37593 -9.36532,-9.36727 z"/>
   <circle style="fill:#241f31" cx="137.206" cy="203.575" r="1.25"/>
   <circle style="fill:#241f31" cx="137.206" cy="195.592" r="1.25"/>
   <circle style="fill:#f6f5f4" cx="137.206" cy="203.269" r="1.25"/>
   <circle style="fill:#f6f5f4" cx="137.206" cy="195.287" r="1.25"/>
   <circle style="fill:#241f31" cx="144.097" cy="203.548" r="1.25"/>
   <circle style="fill:#f6f5f4" cx="144.097" cy="203.243" r="1.25"/>
  </g>
  <g style="fill:#f6f5f4" transform="translate(120.93316,3.2376704)">
   <path d="m 26,244 h 76 c 1.062,0 2,0.936 2,2 H 24 c 0,-1.108 0.983,-2 2,-2 z"/>
   <path d="m 48,232 v 14 h -2 v -14 z m 34,0 v 14 h -2 v -14 z m -58,30 h 80 c 0,1.054 -0.913,2 -2,2 H 26 c -0.985,0 -2,-1.03 -2,-2 z"/>
  </g>
 </g>
 <g transform="matrix(1,0,0,1.0258241,0,-1.8459626)">
  <path d="m -189.12666,75.348428 -8.70342,15.48165 h 23.7832 l 7.63104,-15.48165 z m 50.13568,0 -8.83519,15.481697 h 23.77734 l 9.41638,-15.481697 z m 50.133707,0 -8.970852,15.48165 h 23.777344 l 7.634944,-15.48165 z m 49.46319,0 -8.435995,15.48165 h 23.779297 l 7.634944,-15.48165 z" transform="translate(246.41584,-19.348428)" style="fill:#fafafa"/>
  <path style="fill:#d4d4d4" d="M 148.58789 39.71875 L 157.55859 55.599609 L 180 55.599609 L 172.36523 39.71875 L 148.58789 39.71875 z" transform="matrix(1,0,0,0.974826,0,1.7994923)"/>
  <path style="fill:#d4d4d4" d="M 223.03516 41.111328 C 222.59795 41.023897 222.30578 40.862334 221.8457 40.785156 C 219.18893 40.339483 216.14611 40.058682 212.66211 39.890625 C 209.99605 39.762022 206.81661 39.741411 203.60938 39.71875 L 198.58594 39.71875 L 207.02148 55.599609 L 230 55.599609 L 223.03516 41.111328 z" transform="matrix(1,0,0,0.974826,0,1.7994923)"/>
  <path style="fill:#d4d4d4" d="M 52.041016 39.71875 C 50.829396 39.727311 49.753294 39.761703 48.621094 39.783203 L 57.289062 55.599609 L 80 55.599609 L 72.369141 39.71875 L 52.041016 39.71875 z M 98.589844 39.71875 L 107.42578 55.599609 L 131.7832 55.599609 L 122.36719 39.71875 L 98.589844 39.71875 z" transform="matrix(1,0,0,0.974826,0,1.7994923)"/>
 </g>
 <path style="opacity:0.3;fill:#ffffff" d="m 54.81817,39.667201 c -35.36853,0 -38.992187,3.623202 -38.992187,38.919923 v 98.158206 c 0,0.0882 0.0019,0.16224 0.002,0.25 V 80.585174 c -4.7e-5,-35.29672 3.625564,-38.921879 38.994094,-38.921879 h 73.005853 73.00586 c 35.28016,0 38.97394,3.621035 38.99219,38.671879 v -1.74805 c 0,-35.296721 -3.62561,-38.919923 -38.99414,-38.919923 h -73.00586 z"/>
</svg>
